X:12
T:Vals efter Simons Per
R:vals
H:efter Simons Per, Transtrand, Dalarna
H:\"aven efter Omas Ludvig
A:Transtrand, Dalarna
Z:id:hn-vals-12
M:3/4
L:1/8
K:Dm
eg|f3 f e2|d2 ^c2 d2|^cd e2 d2|^cd ef ge|
f3 f e2|d2 ^c2 d2|^ce a2 c2|d4:|
|:A2|A2 ff ff|f2 e2 d2|d2 ga gf|e2 f2 g2|
ab ag f2|eg fe d2|df eA ^ce|d4:|
<end>
<start>
